public/images/sponsors/GitHub.svg

<svg fill="none" height="86" viewBox="0 0 172 86" width="172" xmlns="http://www.w3.org/2000/svg"><g fill="#161312"><path d="m50.5347 40.5424h-9.8317c-.2537 0-.4593.2059-.4593.46v4.8065c0 .2537.2056.4603.4593.4603h3.8353v5.9721s-.8611.2937-3.2422.2937c-2.8088 0-6.7328-1.0265-6.7328-9.6554 0-8.6302 4.0861-9.7658 7.922-9.7658 3.3208 0 4.7511.5843 5.6616.866.2862.0877.5506-.1969.5506-.4509l1.0966-4.6445c0-.1186-.0403-.2618-.1754-.3589-.3697-.2635-2.625-1.5254-8.3226-1.5254-6.5633 0-13.2961 2.7922-13.2961 16.2163s7.7083 15.4245 14.204 15.4245c5.3783 0 8.641-2.2982 8.641-2.2982.1344-.0744.1491-.2622.1491-.3486v-14.9917c0-.2541-.2057-.46-.4594-.46z"/><path d="m101.204 28.6084c0-.2556-.203-.4622-.457-.4622h-5.5357c-.2527 0-.4583.2066-.4583.4622 0 .0013.0016 10.6984.0016 10.6984h-8.6292v-10.6984c0-.2556-.2034-.4622-.4567-.4622h-5.5355c-.2518 0-.4574.2066-.4574.4622v28.9681c0 .2556.2056.4635.4574.4635h5.5355c.2533 0 .4567-.2079.4567-.4635v-12.3905h8.6292s-.0153 12.3895-.0153 12.3905c0 .2556.2053.4635.4587.4635h5.549c.254 0 .456-.2079.457-.4635z"/><path d="m60.9812 32.4095c0-1.9932-1.5979-3.6041-3.5696-3.6041-1.9698 0-3.5693 1.6109-3.5693 3.6041 0 1.9915 1.5995 3.6066 3.5693 3.6066 1.9717 0 3.5696-1.6151 3.5696-3.6066z"/><path d="m60.5855 51.4659c0-.7426 0-13.3718 0-13.3718 0-.2541-.205-.4616-.458-.4616h-5.5186c-.2531 0-.4795.2611-.4795.5148v19.1578c0 .5629.3508.7305.8046.7305h4.9719c.5457 0 .6796-.2679.6796-.7396 0-1.0268 0-5.0496 0-5.8301z"/><path d="m122.242 37.6758h-5.493c-.252 0-.457.2079-.457.4632v14.204s-1.396 1.021-3.377 1.021c-1.98 0-2.506-.8988-2.506-2.8384 0-1.9419 0-12.3866 0-12.3866 0-.2553-.205-.4632-.457-.4632h-5.575c-.252 0-.458.2079-.458.4632v13.3247c0 5.761 3.211 7.1701 7.627 7.1701 3.624 0 6.546-2.0016 6.546-2.0016s.139 1.055.202 1.1801c.063.1247.227.2508.404.2508l3.547-.016c.251 0 .457-.2079.457-.4622l-.001-19.4459c0-.2553-.205-.4632-.459-.4632z"/><path d="m135.09 53.3467c-1.906-.0578-3.198-.9225-3.198-.9225v-9.1736s1.275-.7816 2.839-.9213c1.978-.177 3.884.4204 3.884 5.1396 0 4.9761-.86 5.9584-3.525 5.8778zm2.166-16.3213c-3.12 0-5.242 1.3923-5.242 1.3923v-9.8094c0-.2556-.204-.4622-.457-.4622h-5.551c-.253 0-.458.2066-.458.4622v28.9681c0 .2556.205.4635.458.4635h3.852c.174 0 .305-.0893.402-.2459.096-.1559.234-1.3357.234-1.3357s2.27 2.1511 6.567 2.1511c5.045 0 7.939-2.5587 7.939-11.4878 0-8.9294-4.621-10.0962-7.744-10.0962z"/><path d="m76.4953 37.6299h-4.1527s-.0062-5.4849-.0062-5.4858c0-.2079-.1072-.3115-.3472-.3115h-5.6586c-.2203 0-.3382.0968-.3382.3082v5.669s-2.8358.6845-3.0278.74c-.1906.0552-.3313.2313-.3313.4415v3.5624c0 .2563.2046.4629.4577.4629h2.9014v8.5704c0 6.3658 4.4652 6.9911 7.478 6.9911 1.377 0 3.0239-.4421 3.2958-.5425.1644-.0604.2599-.2309.2599-.4154l.0048-3.9191c0-.2554-.216-.4623-.459-.4623-.2423 0-.8611.0984-1.4984.0984-2.04 0-2.7309-.9481-2.7309-2.176 0-1.2266-.0003-8.1446-.0003-8.1446h4.153c.253 0 .458-.2066.458-.4629v-4.4622c0-.2557-.205-.4616-.458-.4616z"/><path d="m50.5347 40.5424h-9.8317c-.2537 0-.4593.2059-.4593.46v4.8065c0 .2537.2056.4603.4593.4603h3.8353v5.9721s-.8611.2937-3.2422.2937c-2.8088 0-6.7328-1.0265-6.7328-9.6554 0-8.6302 4.0861-9.7658 7.922-9.7658 3.3208 0 4.7511.5843 5.6616.866.2862.0877.5506-.1969.5506-.4509l1.0966-4.6445c0-.1186-.0403-.2618-.1754-.3589-.3697-.2635-2.625-1.5254-8.3226-1.5254-6.5633 0-13.2961 2.7922-13.2961 16.2163s7.7083 15.4245 14.204 15.4245c5.3783 0 8.641-2.2982 8.641-2.2982.1344-.0744.1491-.2622.1491-.3486v-14.9917c0-.2541-.2057-.46-.4594-.46z"/><path d="m101.204 28.6084c0-.2556-.203-.4622-.457-.4622h-5.5357c-.2527 0-.4583.2066-.4583.4622 0 .0013.0016 10.6984.0016 10.6984h-8.6292v-10.6984c0-.2556-.2034-.4622-.4567-.4622h-5.5355c-.2518 0-.4574.2066-.4574.4622v28.9681c0 .2556.2056.4635.4574.4635h5.5355c.2533 0 .4567-.2079.4567-.4635v-12.3905h8.6292s-.0153 12.3895-.0153 12.3905c0 .2556.2053.4635.4587.4635h5.549c.254 0 .456-.2079.457-.4635z"/><path d="m60.5855 51.4659c0-.7426 0-13.3718 0-13.3718 0-.2541-.205-.4616-.458-.4616h-5.5186c-.2531 0-.4795.2611-.4795.5148v19.1578c0 .5629.3508.7305.8046.7305h4.9719c.5457 0 .6796-.2679.6796-.7396 0-1.0268 0-5.0496 0-5.8301z"/><path d="m122.242 37.6758h-5.493c-.252 0-.457.2079-.457.4632v14.204s-1.396 1.021-3.377 1.021c-1.98 0-2.506-.8988-2.506-2.8384 0-1.9419 0-12.3866 0-12.3866 0-.2553-.205-.4632-.457-.4632h-5.575c-.252 0-.458.2079-.458.4632v13.3247c0 5.761 3.211 7.1701 7.627 7.1701 3.624 0 6.546-2.0016 6.546-2.0016s.139 1.055.202 1.1801c.063.1247.227.2508.404.2508l3.547-.016c.251 0 .457-.2079.457-.4622l-.001-19.4459c0-.2553-.205-.4632-.459-.4632z"/><path d="m135.09 53.3467c-1.906-.0578-3.198-.9225-3.198-.9225v-9.1736s1.275-.7816 2.839-.9213c1.978-.177 3.884.4204 3.884 5.1396 0 4.9761-.86 5.9584-3.525 5.8778zm2.166-16.3213c-3.12 0-5.242 1.3923-5.242 1.3923v-9.8094c0-.2556-.204-.4622-.457-.4622h-5.551c-.253 0-.458.2066-.458.4622v28.9681c0 .2556.205.4635.458.4635h3.852c.174 0 .305-.0893.402-.2459.096-.1559.234-1.3357.234-1.3357s2.27 2.1511 6.567 2.1511c5.045 0 7.939-2.5587 7.939-11.4878 0-8.9294-4.621-10.0962-7.744-10.0962z"/><path d="m76.4953 37.6299h-4.1527s-.0062-5.4849-.0062-5.4858c0-.2079-.1072-.3115-.3472-.3115h-5.6586c-.2203 0-.3382.0968-.3382.3082v5.669s-2.8358.6845-3.0278.74c-.1906.0552-.3313.2313-.3313.4415v3.5624c0 .2563.2046.4629.4577.4629h2.9014v8.5704c0 6.3658 4.4652 6.9911 7.478 6.9911 1.377 0 3.0239-.4421 3.2958-.5425.1644-.0604.2599-.2309.2599-.4154l.0048-3.9191c0-.2554-.216-.4623-.459-.4623-.2423 0-.8611.0984-1.4984.0984-2.04 0-2.7309-.9481-2.7309-2.176 0-1.2266-.0003-8.1446-.0003-8.1446h4.153c.253 0 .458-.2066.458-.4629v-4.4622c0-.2557-.205-.4616-.458-.4616z"/></g></svg>

<svg width="172" height="86" viewBox="0 0 172 86" fill="none" xmlns="http://www.w3.org/2000/svg">
<path d="M50.5347 40.5424H40.703C40.4493 40.5424 40.2437 40.7483 40.2437 41.0024V45.8089C40.2437 46.0626 40.4493 46.2692 40.703 46.2692H44.5383V52.2413C44.5383 52.2413 43.6772 52.535 41.2961 52.535C38.4873 52.535 34.5633 51.5085 34.5633 42.8796C34.5633 34.2494 38.6494 33.1138 42.4853 33.1138C45.8061 33.1138 47.2364 33.6981 48.1469 33.9798C48.4331 34.0675 48.6975 33.7829 48.6975 33.5289L49.7941 28.8844C49.7941 28.7658 49.7538 28.6226 49.6187 28.5255C49.249 28.262 46.9937 27.0001 41.2961 27.0001C34.7328 27.0001 28 29.7923 28 43.2164C28 56.6405 35.7083 58.6409 42.204 58.6409C47.5823 58.6409 50.845 56.3427 50.845 56.3427C50.9794 56.2683 50.9941 56.0805 50.9941 55.9941V41.0024C50.9941 40.7483 50.7884 40.5424 50.5347 40.5424Z" fill="#161312"/>
<path d="M101.204 28.6084C101.204 28.3528 101.001 28.1462 100.747 28.1462H95.2113C94.9586 28.1462 94.753 28.3528 94.753 28.6084C94.753 28.6097 94.7546 39.3068 94.7546 39.3068H86.1254V28.6084C86.1254 28.3528 85.922 28.1462 85.6687 28.1462H80.1332C79.8814 28.1462 79.6758 28.3528 79.6758 28.6084V57.5765C79.6758 57.8321 79.8814 58.04 80.1332 58.04H85.6687C85.922 58.04 86.1254 57.8321 86.1254 57.5765V45.186H94.7546C94.7546 45.186 94.7393 57.5755 94.7393 57.5765C94.7393 57.8321 94.9446 58.04 95.198 58.04H100.747C101.001 58.04 101.203 57.8321 101.204 57.5765V28.6084Z" fill="#161312"/>
<path d="M60.9812 32.4095C60.9812 30.4163 59.3833 28.8054 57.4116 28.8054C55.4418 28.8054 53.8423 30.4163 53.8423 32.4095C53.8423 34.401 55.4418 36.0161 57.4116 36.0161C59.3833 36.0161 60.9812 34.401 60.9812 32.4095Z" fill="#161312"/>
<path d="M60.5855 51.4659C60.5855 50.7233 60.5855 38.0941 60.5855 38.0941C60.5855 37.84 60.3805 37.6325 60.1275 37.6325H54.6089C54.3558 37.6325 54.1294 37.8936 54.1294 38.1473C54.1294 38.1473 54.1294 54.238 54.1294 57.3051C54.1294 57.868 54.4802 58.0356 54.934 58.0356C54.934 58.0356 57.2897 58.0356 59.9059 58.0356C60.4516 58.0356 60.5855 57.7677 60.5855 57.296C60.5855 56.2692 60.5855 52.2464 60.5855 51.4659Z" fill="#161312"/>
<path d="M122.242 37.6758H116.749C116.497 37.6758 116.292 37.8837 116.292 38.139V52.343C116.292 52.343 114.896 53.364 112.915 53.364C110.935 53.364 110.409 52.4652 110.409 50.5256C110.409 48.5837 110.409 38.139 110.409 38.139C110.409 37.8837 110.204 37.6758 109.952 37.6758H104.377C104.125 37.6758 103.919 37.8837 103.919 38.139C103.919 38.139 103.919 45.7031 103.919 51.4637C103.919 57.2247 107.13 58.6338 111.546 58.6338C115.17 58.6338 118.092 56.6322 118.092 56.6322C118.092 56.6322 118.231 57.6872 118.294 57.8123C118.357 57.937 118.521 58.0631 118.698 58.0631L122.245 58.0471C122.496 58.0471 122.702 57.8392 122.702 57.5849L122.701 38.139C122.701 37.8837 122.496 37.6758 122.242 37.6758Z" fill="#161312"/>
<path d="M135.09 53.3467C133.184 53.2889 131.892 52.4242 131.892 52.4242V43.2506C131.892 43.2506 133.167 42.469 134.731 42.3293C136.709 42.1523 138.615 42.7497 138.615 47.4689C138.615 52.445 137.755 53.4273 135.09 53.3467ZM137.256 37.0254C134.136 37.0254 132.014 38.4177 132.014 38.4177V28.6083C132.014 28.3527 131.81 28.1461 131.557 28.1461H126.006C125.753 28.1461 125.548 28.3527 125.548 28.6083V57.5764C125.548 57.832 125.753 58.0399 126.006 58.0399C126.007 58.0399 129.857 58.0399 129.858 58.0399C130.032 58.0399 130.163 57.9506 130.26 57.794C130.356 57.6381 130.494 56.4583 130.494 56.4583C130.494 56.4583 132.764 58.6094 137.061 58.6094C142.106 58.6094 145 56.0507 145 47.1216C145 38.1922 140.379 37.0254 137.256 37.0254Z" fill="#161312"/>
<path d="M76.4953 37.6299H72.3426C72.3426 37.6299 72.3364 32.145 72.3364 32.1441C72.3364 31.9362 72.2292 31.8326 71.9892 31.8326H66.3306C66.1103 31.8326 65.9924 31.9294 65.9924 32.1408V37.8098C65.9924 37.8098 63.1566 38.4943 62.9646 38.5498C62.774 38.605 62.6333 38.7811 62.6333 38.9913V42.5537C62.6333 42.81 62.8379 43.0166 63.091 43.0166H65.9924C65.9924 43.0166 65.9924 46.7428 65.9924 51.587C65.9924 57.9528 70.4576 58.5781 73.4704 58.5781C74.8474 58.5781 76.4943 58.136 76.7662 58.0356C76.9306 57.9752 77.0261 57.8047 77.0261 57.6202L77.0309 53.7011C77.0309 53.4457 76.8149 53.2388 76.5719 53.2388C76.3296 53.2388 75.7108 53.3372 75.0735 53.3372C73.0335 53.3372 72.3426 52.3891 72.3426 51.1612C72.3426 49.9346 72.3423 43.0166 72.3423 43.0166H76.4953C76.7483 43.0166 76.9533 42.81 76.9533 42.5537V38.0915C76.9533 37.8358 76.7483 37.6299 76.4953 37.6299Z" fill="#161312"/>
<path d="M50.5347 40.5424H40.703C40.4493 40.5424 40.2437 40.7483 40.2437 41.0024V45.8089C40.2437 46.0626 40.4493 46.2692 40.703 46.2692H44.5383V52.2413C44.5383 52.2413 43.6772 52.535 41.2961 52.535C38.4873 52.535 34.5633 51.5085 34.5633 42.8796C34.5633 34.2494 38.6494 33.1138 42.4853 33.1138C45.8061 33.1138 47.2364 33.6981 48.1469 33.9798C48.4331 34.0675 48.6975 33.7829 48.6975 33.5289L49.7941 28.8844C49.7941 28.7658 49.7538 28.6226 49.6187 28.5255C49.249 28.262 46.9937 27.0001 41.2961 27.0001C34.7328 27.0001 28 29.7923 28 43.2164C28 56.6405 35.7083 58.6409 42.204 58.6409C47.5823 58.6409 50.845 56.3427 50.845 56.3427C50.9794 56.2683 50.9941 56.0805 50.9941 55.9941V41.0024C50.9941 40.7483 50.7884 40.5424 50.5347 40.5424Z" fill="#161312"/>
<path d="M101.204 28.6084C101.204 28.3528 101.001 28.1462 100.747 28.1462H95.2113C94.9586 28.1462 94.753 28.3528 94.753 28.6084C94.753 28.6097 94.7546 39.3068 94.7546 39.3068H86.1254V28.6084C86.1254 28.3528 85.922 28.1462 85.6687 28.1462H80.1332C79.8814 28.1462 79.6758 28.3528 79.6758 28.6084V57.5765C79.6758 57.8321 79.8814 58.04 80.1332 58.04H85.6687C85.922 58.04 86.1254 57.8321 86.1254 57.5765V45.186H94.7546C94.7546 45.186 94.7393 57.5755 94.7393 57.5765C94.7393 57.8321 94.9446 58.04 95.198 58.04H100.747C101.001 58.04 101.203 57.8321 101.204 57.5765V28.6084Z" fill="#161312"/>
<path d="M60.5855 51.4659C60.5855 50.7233 60.5855 38.0941 60.5855 38.0941C60.5855 37.84 60.3805 37.6325 60.1275 37.6325H54.6089C54.3558 37.6325 54.1294 37.8936 54.1294 38.1473C54.1294 38.1473 54.1294 54.238 54.1294 57.3051C54.1294 57.868 54.4802 58.0356 54.934 58.0356C54.934 58.0356 57.2897 58.0356 59.9059 58.0356C60.4516 58.0356 60.5855 57.7677 60.5855 57.296C60.5855 56.2692 60.5855 52.2464 60.5855 51.4659Z" fill="#161312"/>
<path d="M122.242 37.6758H116.749C116.497 37.6758 116.292 37.8837 116.292 38.139V52.343C116.292 52.343 114.896 53.364 112.915 53.364C110.935 53.364 110.409 52.4652 110.409 50.5256C110.409 48.5837 110.409 38.139 110.409 38.139C110.409 37.8837 110.204 37.6758 109.952 37.6758H104.377C104.125 37.6758 103.919 37.8837 103.919 38.139C103.919 38.139 103.919 45.7031 103.919 51.4637C103.919 57.2247 107.13 58.6338 111.546 58.6338C115.17 58.6338 118.092 56.6322 118.092 56.6322C118.092 56.6322 118.231 57.6872 118.294 57.8123C118.357 57.937 118.521 58.0631 118.698 58.0631L122.245 58.0471C122.496 58.0471 122.702 57.8392 122.702 57.5849L122.701 38.139C122.701 37.8837 122.496 37.6758 122.242 37.6758Z" fill="#161312"/>
<path d="M135.09 53.3467C133.184 53.2889 131.892 52.4242 131.892 52.4242V43.2506C131.892 43.2506 133.167 42.469 134.731 42.3293C136.709 42.1523 138.615 42.7497 138.615 47.4689C138.615 52.445 137.755 53.4273 135.09 53.3467ZM137.256 37.0254C134.136 37.0254 132.014 38.4177 132.014 38.4177V28.6083C132.014 28.3527 131.81 28.1461 131.557 28.1461H126.006C125.753 28.1461 125.548 28.3527 125.548 28.6083V57.5764C125.548 57.832 125.753 58.0399 126.006 58.0399C126.007 58.0399 129.857 58.0399 129.858 58.0399C130.032 58.0399 130.163 57.9506 130.26 57.794C130.356 57.6381 130.494 56.4583 130.494 56.4583C130.494 56.4583 132.764 58.6094 137.061 58.6094C142.106 58.6094 145 56.0507 145 47.1216C145 38.1922 140.379 37.0254 137.256 37.0254Z" fill="#161312"/>
<path d="M76.4953 37.6299H72.3426C72.3426 37.6299 72.3364 32.145 72.3364 32.1441C72.3364 31.9362 72.2292 31.8326 71.9892 31.8326H66.3306C66.1103 31.8326 65.9924 31.9294 65.9924 32.1408V37.8098C65.9924 37.8098 63.1566 38.4943 62.9646 38.5498C62.774 38.605 62.6333 38.7811 62.6333 38.9913V42.5537C62.6333 42.81 62.8379 43.0166 63.091 43.0166H65.9924C65.9924 43.0166 65.9924 46.7428 65.9924 51.587C65.9924 57.9528 70.4576 58.5781 73.4704 58.5781C74.8474 58.5781 76.4943 58.136 76.7662 58.0356C76.9306 57.9752 77.0261 57.8047 77.0261 57.6202L77.0309 53.7011C77.0309 53.4457 76.8149 53.2388 76.5719 53.2388C76.3296 53.2388 75.7108 53.3372 75.0735 53.3372C73.0335 53.3372 72.3426 52.3891 72.3426 51.1612C72.3426 49.9346 72.3423 43.0166 72.3423 43.0166H76.4953C76.7483 43.0166 76.9533 42.81 76.9533 42.5537V38.0915C76.9533 37.8358 76.7483 37.6299 76.4953 37.6299Z" fill="#161312"/>
</svg>
